X:1016
T:Ha meghalok, meghagyom
Q:1/4=126
M:4/4
L:1/4
K:Bb
G/G/B/B/ A/A/ D | B/B/c/c/ d/d/c/B/ | A<G G z |
G/G/B/B/ A/A/ D | B/B/c/c/ d/d/c/B/ | A<G G z |
dedc | ddBG | ^F<A D z |
G/G/B/B/ A/A/ D | B/B/c/c/ d/d/c/B/ | A<G G z |

